src/assets/images/logo-light.svg

<svg width="258" height="258" viewBox="0 0 258 258" fill="none" xmlns="http://www.w3.org/2000/svg">
<g clip-path="url(#clip0_2582_8)">
<mask id="mask0_2582_8" style="mask-type:luminance" maskUnits="userSpaceOnUse" x="0" y="0" width="258" height="258">
<path d="M238 0H20C8.9543 0 0 8.9543 0 20V238C0 249.046 8.9543 258 20 258H238C249.046 258 258 249.046 258 238V20C258 8.9543 249.046 0 238 0Z" fill="white"/>
</mask>
<g mask="url(#mask0_2582_8)">
<path d="M319.325 0L318.615 205.318H361.83L362.54 0H319.325ZM-142.701 48.8853C-188.212 48.8853 -225.338 84.7781 -225.491 129.07C-225.645 173.362 -188.833 209.255 -143.255 209.255C-97.6774 209.255 -60.6183 173.362 -60.4652 129.07C-60.312 84.7781 -97.123 48.8853 -142.701 48.8853ZM-143.125 171.394C-167.23 171.394 -186.679 152.43 -186.598 129.005C-186.517 105.579 -166.937 86.6161 -142.831 86.6161C-118.658 86.6161 -99.2097 105.579 -99.2906 129.005C-99.3716 152.43 -118.951 171.394 -143.125 171.394ZM261.073 52.7568L261.045 61.0246C248.444 53.3474 233.47 48.8853 217.467 48.8853C194.374 48.8853 173.477 58.0718 158.436 72.9015L71.4398 158.73C63.5124 166.604 52.422 171.394 40.2678 171.394C16.1621 171.394 -3.2864 152.43 -3.20541 129.005C-3.12443 105.579 16.5227 86.6161 40.5609 86.6161C52.7826 86.6161 63.7721 91.4711 71.6453 99.2801L87.5933 115.159L114.898 88.1901L99.4885 72.9015C84.5497 58.0718 63.7168 48.8853 40.6239 48.8853C24.621 48.8853 9.6829 53.3474 -3.03796 61.0246L-2.82721 0.0655994H-45.6367L-46.3465 205.384H-3.53705L-3.50845 197.116C9.15933 204.793 24.1339 209.321 40.0693 209.321C63.1621 209.321 84.0588 200.069 99.0999 185.305L186.097 99.2801C194.024 91.4061 205.115 86.6161 217.269 86.6161C241.374 86.6161 260.823 105.579 260.742 129.005C260.661 152.43 241.081 171.459 216.975 171.459C204.754 171.459 193.764 166.538 185.891 158.73L170.01 142.916L142.706 169.885L158.048 185.174C172.987 200.003 193.819 209.19 216.912 209.19C232.915 209.19 247.921 204.728 260.575 196.985L260.546 205.253H303.423L303.95 52.7568H261.073ZM-332.531 94.6871C-332.499 85.1721 -322.289 81.2351 -309.932 81.2351C-290.823 81.2351 -286.193 89.6341 -285.624 100.658H-242.814C-245.138 69.883 -270.39 49.7384 -310.499 49.7384C-350.54 49.7384 -375.936 71.5891 -376.033 99.4771C-376.257 164.176 -282.709 136.551 -282.803 163.585C-282.828 170.869 -290.28 178.021 -306.283 178.021C-329.105 177.693 -335.548 166.341 -335.515 157.023H-379C-378.224 186.42 -351.763 208.271 -308.616 208.271C-268.777 208.271 -237.259 192.982 -237.132 156.302C-236.93 97.9671 -332.627 122.246 -332.531 94.6871Z" fill="black"/>
</g>
</g>
<defs>
<clipPath id="clip0_2582_8">
<rect width="258" height="258" fill="white"/>
</clipPath>
</defs>
</svg>

<svg xmlns="http://www.w3.org/2000/svg" width="258" height="258" fill="none"><g clip-path="url(#a)"><mask id="b" width="258" height="258" x="0" y="0" maskUnits="userSpaceOnUse" style="mask-type:luminance"><path fill="#fff" d="M238 0H20C8.954 0 0 8.954 0 20v218c0 11.046 8.954 20 20 20h218c11.046 0 20-8.954 20-20V20c0-11.046-8.954-20-20-20"/></mask><g mask="url(#b)"><path fill="#000" d="m319.325 0-.71 205.318h43.215L362.54 0zm-462.026 48.885c-45.511 0-82.637 35.893-82.79 80.185s36.658 80.185 82.236 80.185 82.637-35.893 82.79-80.185-36.658-80.185-82.236-80.185m-.424 122.509c-24.105 0-43.554-18.964-43.473-42.389s19.661-42.389 43.767-42.389c24.173 0 43.621 18.963 43.54 42.389-.08 23.425-19.66 42.389-43.834 42.389M261.073 52.757l-.028 8.268c-12.601-7.678-27.575-12.14-43.578-12.14-23.093 0-43.99 9.187-59.031 24.017L71.44 158.73c-7.928 7.874-19.018 12.664-31.172 12.664-24.106 0-43.554-18.964-43.473-42.389.08-23.426 19.728-42.389 43.766-42.389 12.222 0 23.211 4.855 31.084 12.664l15.948 15.879 27.305-26.969-15.41-15.288C84.55 58.072 63.718 48.885 40.625 48.885a84.25 84.25 0 0 0-43.662 12.14l.21-60.96h-42.809l-.71 205.319h42.81l.029-8.268c12.667 7.677 27.642 12.205 43.577 12.205 23.093 0 43.99-9.252 59.03-24.016l86.998-86.025c7.927-7.874 19.018-12.664 31.172-12.664 24.105 0 43.554 18.963 43.473 42.389-.081 23.425-19.661 42.454-43.767 42.454-12.221 0-23.211-4.921-31.084-12.729l-15.881-15.814-27.304 26.969 15.342 15.289c14.939 14.829 35.771 24.016 58.864 24.016 16.003 0 31.009-4.462 43.663-12.205l-.029 8.268h42.877l.527-152.496zm-593.604 41.93c.032-9.515 10.242-13.452 22.599-13.452 19.109 0 23.739 8.4 24.308 19.423h42.81c-2.324-30.775-27.576-50.92-67.685-50.92-40.041 0-65.437 21.851-65.534 49.74-.224 64.698 93.324 37.073 93.23 64.107-.025 7.284-7.477 14.436-23.48 14.436-22.822-.328-29.265-11.68-29.232-20.998H-379c.776 29.397 27.237 51.248 70.384 51.248 39.839 0 71.357-15.289 71.484-51.969.202-58.335-95.495-34.056-95.399-61.615"/></g></g><defs><clipPath id="a"><path fill="#fff" d="M0 0h258v258H0z"/></clipPath></defs></svg>
